X:12763
T:Pajduska
S:Hamish Small ??
R:Other
O:Macedonia
M:5/16
L:1/16
K:Bbm
c2 e3|c2 d3| dc B2A| c2 c3|\
c2 e3|c2 d3|dc B2A|B2 B3 ::
dc B3|=GA B3|dc B2A|c2 c3|\
dc B3|=GA B3|dc B2A|B2 B3:|



Xiraldilla
C:Tradicional
S:Música Tradicional Asturiana, (C) Tello & Tito. Asturies, 2001.
S:http://pagina.de/MusTradAst <telloytito@asturies.org>
N:Canción usada en bailes de corro.
A:Asturies
Z:DyC en Teberga
M:2/4
L:1/8
Q:1/4=92
K:Fm
C
|: F2 F2-|FB BA|GG EF|GG AB|A-G F2-|F2 z C|
|F2 F2-|FB BA|GA GF|E{F}E ED|C2 C2-|[1 C2 z C :|[2 C2 z2|



